assets/icons/story.svg

<?xml version="1.0"?><svg fill="#000000" xmlns="http://www.w3.org/2000/svg"  viewBox="0 0 24 24" width="24px" height="24px">    <path d="M 2 4 L 2 18 C 2 19.105 2.895 20 4 20 L 10.277344 20 C 10.623613 20.595634 11.261054 21 12 21 C 12.738946 21 13.376387 20.595634 13.722656 20 L 20 20 C 21.105 20 22 19.105 22 18 L 22 4 L 16 4 C 14.343 4 13 5.343 13 7 L 13 18 L 11 18 L 11 7 C 11 5.343 9.657 4 8 4 L 2 4 z"/></svg>

<?xml version="1.0"?><svg fill="#000000" xmlns="http://www.w3.org/2000/svg"  viewBox="0 0 24 24" width="24px" height="24px">    <path d="M16,4c-1.657,0-3,1.343-3,3v11h-2V7c0-1.657-1.343-3-3-3H2v14c0,1.105,0.895,2,2,2h6.277c0.346,0.595,0.984,1,1.723,1 s1.377-0.405,1.723-1H20c1.105,0,2-0.895,2-2V4H16z"/></svg>
